img/facebook.svg

<svg width="8" height="17" viewBox="0 0 8 17" fill="none" xmlns="http://www.w3.org/2000/svg">
<path d="M7.69874 0.732577L5.77991 0.729248C3.62416 0.729248 2.23102 2.27477 2.23102 4.66687V6.48238H0.301719C0.135004 6.48238 0 6.62852 0 6.80879V9.43925C0 9.61952 0.135158 9.7655 0.301719 9.7655H2.23102V16.403C2.23102 16.5833 2.36603 16.7292 2.53274 16.7292H5.04993C5.21665 16.7292 5.35165 16.5831 5.35165 16.403V9.7655H7.60746C7.77417 9.7655 7.90918 9.61952 7.90918 9.43925L7.9101 6.80879C7.9101 6.72224 7.87824 6.63934 7.82174 6.57809C7.76525 6.51683 7.68828 6.48238 7.60823 6.48238H5.35165V4.94335C5.35165 4.20363 5.51467 3.82811 6.40582 3.82811L7.69844 3.82761C7.865 3.82761 8 3.68147 8 3.50136V1.05883C8 0.87889 7.86515 0.73291 7.69874 0.732577Z" fill="white"/>
</svg>

<svg width="8" height="17" fill="none" xmlns="http://www.w3.org/2000/svg"><path d="M7.699.733L5.779.729c-2.155 0-3.548 1.546-3.548 3.938v1.815H.301C.136 6.482 0 6.63 0 6.81v2.63c0 .18.135.326.302.326H2.23v6.638c0 .18.135.326.302.326H5.05c.167 0 .302-.146.302-.326V9.766h2.255c.167 0 .302-.146.302-.327l.001-2.63a.34.34 0 00-.088-.23.29.29 0 00-.214-.097H5.352V4.943c0-.74.163-1.115 1.054-1.115h1.292C7.865 3.828 8 3.68 8 3.5V1.06c0-.18-.135-.326-.301-.326z" fill="#fff"/></svg>
